with_fx :reverb do
  with_fx :distortion, distort: 0.5 do
    with_fx :flanger do
      3.times do
        use_synth :tri
        play (chord :e3, :minor), release: 0.5
        sleep 0.6
      end
    end
  end
end