loops = {
  :drum1 => [
    {
      :sounds => [:k],
      :sleep => 4
    }
  ],
  :drum2 => [
    {
      :sounds => [:c],
      :sleep => 1
    },
    {
      :sounds => [:s],
      :sleep => 1
    }
  ],
  :drum3 => [
    {
      :sounds => [:et],
      :sleep => 0.5
    }
  ]
}

play_loops loops